packages/core/src/svgs/tokens/mono/POLYX.svg

<svg width="24" height="24" viewBox="0 0 24 24" fill="none" xmlns="http://www.w3.org/2000/svg">
<path d="M13.0764 11.9999C14.2294 11.9999 15.5293 11.5116 15.5293 10.2352C15.5293 9.00571 14.2822 8.47041 13.0764 8.47041H9.64697V7.29395H13.2587C15.1528 7.29395 16.7057 8.25277 16.7057 10.2352C16.7057 12.2174 15.0764 13.1763 13.2587 13.1763H10.8234V17.2939H9.64697V11.9999H13.0764Z" fill="white"/>
<path fill-rule="evenodd" clip-rule="evenodd" d="M12 22C14.6522 22 17.1957 20.9464 19.071 19.071C20.9464 17.1957 22 14.6522 22 12C22 9.34785 20.9464 6.80429 19.071 4.92892C17.1957 3.05357 14.6522 2 12 2C9.34785 2 6.80429 3.05357 4.92892 4.92892C3.05357 6.80429 2 9.34785 2 12C2 14.6522 3.05357 17.1957 4.92892 19.071C6.80429 20.9464 9.34785 22 12 22ZM12 20.8235C14.3401 20.8235 16.5845 19.8938 18.2392 18.2392C19.8938 16.5845 20.8235 14.3401 20.8235 12C20.8235 9.65983 19.8938 7.41554 18.2392 5.76081C16.5845 4.10608 14.3401 3.17647 12 3.17647C9.65983 3.17647 7.41554 4.10608 5.76081 5.76081C4.10608 7.41554 3.17647 9.65983 3.17647 12C3.17647 14.3401 4.10608 16.5845 5.76081 18.2392C7.41554 19.8938 9.65983 20.8235 12 20.8235Z" fill="white"/>
</svg>

<svg xmlns="http://www.w3.org/2000/svg" width="24" height="24" fill="none" viewBox="0 0 24 24">
    <path fill="#fff" d="M13.076 12c1.153 0 2.453-.488 2.453-1.765 0-1.23-1.247-1.765-2.453-1.765H9.647V7.294h3.612c1.894 0 3.447.959 3.447 2.941s-1.63 2.941-3.447 2.941h-2.436v4.118H9.647V12z"/>
    <path fill="#fff" fill-rule="evenodd" d="M12 22a10 10 0 1 0 0-20 10 10 0 0 0 0 20m0-1.177a8.824 8.824 0 1 0 0-17.648 8.824 8.824 0 0 0 0 17.649" clip-rule="evenodd"/>
</svg>
